X:1491
L:1/8
Q:3/8=80
M:6/8
K:G
|: G2 G BAG | F2 G A3 | B2 B dcB | ABG FED | G2 G BAG | F2 G A3 | BcB AGF | G3 G,3 :: g2 e e2 g | 
 d2 d dcB | e2 c c2 e | d2 B BAG | c2 A A2 c | Bdc BAG | AcB AGF | G3 G,3 :|

